!!!!SEGMENT: pl-wumfc--n27273--001-002_szymanowski-karol--dwanascie-piesni-op-17-vi-zwiastowanie-rozwarlas-drzwi-przede-mna.krn
!!!cenid: 19xx:78
!!!COM: Szymanowski, Karol
!!!COM-rismID: pe30106403
!!!CDT: 1882-1937
!!!CNT: Polish
!!!GTL: Dwanaście pieśni Op. 17
!!!OTL: VI. Zwiastowanie/Rozwarłaś drzwi przede mną
!!!OMV: 002
!!!PDT:
!!!AGN: Secular; Song
!!!YEC: Copyright 2022 Narodowy Instytut Fryderyka Chopina (https://polishscores.org)
!!!YEM: License CC-BY-4.0 (https://creativecommons.org/licenses/by/4.0)
!!!SMS-siglum: PL-Wumfc
!!!SMS-shelfmark: N27273
!!!SMS-variant:
!!!SMS-altvar:
!!!SMS-shelfwork: 001-002 G
!!!NIFC-rismSourceID: 1001177326
!!!NIFC-rismChildID: 1001177512
!!!NIFC-islandoraID: pl-wumfc:9125
!!!URL-pdf-islandora: https://repozytorium.nifc.pl/islandora/object/pl-wumfc%3A9125/datastream/PDF/view
!!!URL-scan: https://polish.musicsources.pl/pl/lokalizacje/galeria/druki-muzyczne/11976/5 @EN{Scan on Polish Music Sources Website} @PL{Skany w portalu Dziedzictwo Muzyki Polskiej w otwartym dostępie}
!!!IIIF:
!!!ONB-nifc: UWAGA: str. 5.
!!!AIN: 1 piano 1 vox
!!!key: B
**kern	**kern	**dynam	**kern	**text	**text	**dynam
*part2	*part2	*part2	*part1	*part1	*part1	*part1
*staff3	*staff2	*	*staff1	*staff1	*staff1	*
*I"[fortepian]	*I"[fortepian]	*	*I"[spiew]	*	*	*
*I'[pf]	*I'[pf]	*	*I'[V]	*	*	*
*ICklav	*ICklav	*	*ICvox	*	*	*
*Ipiano	*Ipiano	*	*Ivox	*	*	*
*clefF4	*clefG2	*	*clefG2	*	*	*
*k[f#c#g#d#a#]	*k[f#c#g#d#a#]	*	*k[f#c#g#d#a#]	*	*	*
*B:	*B:	*	*B:	*	*	*
*M3/4	*M3/4	*	*M3/4	*	*	*
=1	=1	=1	=1	=1	=1	=1
*	*^	*	*	*	*	*
!	!	!	!	!LO:TX:a:B:t=Lento dolce poco divoto.	!	!	!
4F#\ 4G#	(4f#/ 4g#	8B#X\L 8d#	<	4r	.	.	.
.	.	8c#\J 8e	.	.	.	.	.
!	!	!LO:TX:t=P:problem: bracketed notes	!	!	!	!	!
4BBB/ 4FF# 4BB	4an/ 4b#X 4dd# 4ff#	4d#\ 4f#	[ >	8r	.	.	.
.	.	.	.	8b#X\	Du	Roz-	.
4E\ 4A# 4c#	8ee/L	4e\ 4gn	.	8cc#\	ta-	-war-	.
.	8cc#/J)	.	]]	8cc#\	-test	-łaś	.
=2	=2	=2	=2	=2	=2	=2	=2
*^	*	*	*	*	*	*	*
4F##X\ 4A# 4c#	2ryy	(4d#/ 4dd#	8f##X\L 8a#	<	(<4.dd#\	mir	drzwi	< [[
.	.	.	8g#\J 8b	.	.	.	.	.
!	!	!	!LO:TX:t=P:problem: bracketed notes	!	!	!	!	!
4BBB/ 4FF# 4BB	.	4ggn/ 4aa# 4ccc#	4a#\ 4cc#	.	.	.	.	.
.	.	.	.	.	8ee\)	die	.	.
4dn/ 4e#X	8G#\L	8b/L 8bb	4ddn\	[ mf >	(<8bn/L	Tür	Prze-	.
.	8B\J	8g#/J) 8gg	.	]]	8a#/J)	.	.	.
=3	=3	=3	=3	=3	=3	=3	=3	=3
*	*	*	*	*	*^	*	*	*
4B#X\ 4f# 4an	4ryy	(8ff#/ 8fff#	2aan\ 2ddd#	pp <	8an\	4a/	auf,	-de-	.
.	.	4ee#X/ 4eee#X	.	.	8a\	.	.	-mną	.
4EEE/ 4EE	([2EEE\ [>2EE	.	.	.	8r	2ryy	.	.	.
.	.	4een/ 4eeen	.	.	4ff#\	.	ern-	dzie-	.
4B#/ 4f# 4a	.	.	4ff#\ 4aa	.	.	.	.	.	.
.	.	8dd#/ 8ddd#	.	[[	8ff#\	.	-stes	-cię	.
*	*	*	*	*	*v	*v	*	*	*
=4	=4	=4	=4	=4	=4	=4	=4	=4
*	*^	*	*	*	*	*	*	*
4c#/ 4e 4g#	8EEE\L] 8EE]	2ryy	4cc#/) 4ccc#	4ee\ 4gg#	>	2cc#\	Kind.	me.	.
.	8GGG#\J 8GG#	.	.	.	.	.	.	.	.
8r	2CC#\) 2C#	.	2bb/	(>8g#\L 8ddn	.	.	.	.	.
8A#/ 8c# 8f##X	.	.	.	8a#\J 8ff##X	.	.	.	.	.
!LO:TX:t=P:problem: od 8.g#/L do 8an\J) voice leading line	!	!	!LO:TX:b:i:t=rit.	!	!	!	!	!	!
8.g#/L	.	4B\ 4dn	.	8b\L 8ee#X 8gg#	]	4r	.	.	.
.	.	.	.	8an\J) 8aan	.	.	.	.	.
16gn/Jk	.	.	.	.	.	.	.	.	.
*v	*v	*v	*	*	*	*	*	*	*
!!LO:LB:g=original	!	!	!	!	!	!	!
=5	=5	=5	=5	=5	=5	=5	=5
!LO:TX:a:t=P:problem: od 12f# do 8e#X\J voice leading line	!LO:TX:a:t=P:problem:łuk rozpoczyna się na pierwszej ósemce w lewej ręce i kończy na ostatniej nucie w prawej ręce tego taktu	!	!	!	!	!	!
!LO:TX:t=P:problem:mixed beam	!LO:TX:a:i:t=ten.	!	!	!LO:TX:a:i:t=a tempo	!	!	!
!LO:TUP:a	!	!	!	!	!	!	!
N(12G#\L 12A# 12c##X 12f#	8a#X\L 8cc##X 8aa#X	4ryy	.	4r	.	.	.
(12FFF#/	.	.	.	.	.	.	.
.	8e#X\J	.	>	.	.	.	.
12FF#/J)	.	.	.	.	.	.	.
(4G#\ 4dn	(4.a#/	4en\	.	4r	.	.	.
!LO:N:n=2:acc=#n	!	!	!	!	!	!	!
4Gn\) 4c#X	.	4fn\	]	8r	.	.	.
!	!LO:TX:b:Bi:t=cresc._ :problem:dynamics with line extensions	!	!	!	!	!	!
.	8b/)N)X	.	<	8b\	Ich	Przuj-	.
=6	=6	=6	=6	=6	=6	=6	=6
!LO:TX:t=P:problem:mixed beam	!LO:TX:a:i:t=ten.	!	!	!	!	!	!
N(12B\L 12c# 12e#X 12an	8cc#\L 8ee#X 8ccc#	4ryy	.	8cc#\	sah	-rza-	.
(12FFF#/	.	.	.	.	.	.	.
.	8g#\J	.	.	8g#/	mich	-łem	.
12FF#/J)	.	.	.	.	.	.	.
(4B\ 4e#	(4.cc#/	4f##X\	>	4.f##X/	um	się	.
4B-X\) 4en	.	4g#\	.	.	.	.	.
.	8ddn/)N)	.	]]	8ddn\	in	ma-	.
*	*v	*v	*	*	*	*	*
=7	=7	=7	=7	=7	=7	=7
*^	*	*	*	*	*	*
*	*	*	*^	*	*	*	*
*	*	*	*	*^	*	*	*	*
*	*	*	*	*	*^	*	*	*	*
!LO:TX:a:t=P:problem: od 8ccn/ do 8bn\J voice leading line	!	!	!	!	!	!	!	!	!	!
4dn\ 4e 4g#	8ccn/	8een\L 8gg# 8eeen	.	.	.	.	8ee\	dei-	-łe	.
.	8ryy	8bn\J	.	.	.	.	8bn\	-nem	mu	.
!	!	!LO:TX:b:i:t=ten.	!LO:DY:b	!LO:DY:b	!LO:HP:a	!	!	!	!	!
!	!	!	!	!	!	!LO:HP:a	!	!	!	!
((4CCCn/ 4CCn	2ryy	(>[2e-X^^/ [2ccn [2ee-X	sf	mf	<	<	([2ee-X^^\	klei-	twe-	.
4EEE-X/ 4EE-X	.	.	.	.	[[	[[	.	.	.	.
*	*	*	*	*	*v	*v	*	*	*	*
*	*	*	*	*v	*v	*	*	*	*
*	*	*	*v	*v	*	*	*	*
=8	=8	=8	=8	=8	=8	=8	=8
*	*	*^	*	*	*	*	*
*	*	*	*	*^	*	*	*	*
*	*	*	*	*	*^	*	*	*	*
*	*	*	*	*	*	*^	*	*	*	*
!	!	!	!	!	!	!LO:HP:a	!LO:HP:a:t=dimin.	!	!	!	!
2.AAA-X\)) 2.AA-X	4rg	2.e-/] 2.ee	4cc\] 4ee-]	>	.	>	>	4ee-\]	.	.	.
!	!	!	!	!	!LO:HP:a:t=molto dim.	!	!	!	!	!	!
.	(4B-X/ 4dn	.	4b-X\ 4ddn	.	>	.	.	4ddn\)	.	.	.
!	!	!LO:TX:b:i:t=rit.	!	!	!	!	!	!	!	!	!
.	4A-X/) 4cn	.	4a-X\) 4ccn	]]	.	]]	.	4ccn\	-nen	-mu	.
*	*	*	*	*	*	*v	*v	*	*	*	*
*	*	*	*	*	*v	*v	*	*	*	*
*	*	*	*	*v	*v	*	*	*	*
*v	*v	*	*	*	*	*	*	*
=9	=9	=9	=9	=9	=9	=9	=9
*	*	*^	*	*	*	*	*
2.DDDn/ 2.DDn	(>(4An/ 4cn 4dn 4f#X	4ryy	4ryy	pp	4f#X/	Him-	nie-	.
!	!LO:TX:b:i:t=rall.	!	!	!	!	!	!	!
!	!	!LO:TX:a:t=P:problem: od 2Gn\ do 4F#\ voice leading line	!	!	!	!	!	!
.	4.gn/	2Gn\ 2dn	4BnX\	.	4gn/	-mel,	-bu,	.
!	!	!	!LO:TX:a:t=P:problem: od 4B-X\) do 4A# voice leading line	!	!	!	!	!
.	.	.	4B-X\)	.	4r	.	.	.
.	8an/)	.	.	.	.	.	.	.
*	*	*v	*v	*	*	*	*	*
!!LO:LB:g=original	!	!	!	!	!	!	!
=10	=10	=10	=10	=10	=10	=10	=10
!	!	!LO:TX:b:Bi:t=cresc. _ :problem:dynamics with line extensions	!	!LO:TX:a:i:t=(tempo I)	!	!	!
4F#\ 4A# 4Bn	(4an/ 4bn	8d#X\L 8f#X	p <	4r	.	.	.
.	.	8en\J 8gn	.	.	.	.	.
4DDDn/ 4DDn	4ccn/ 4dd#X 4ff#X 4aan	4f#\	<	8r	.	.	.
!	!	!	!	!LO:TX:t=P:problem: # w nawiasie	!	!	!LO:DY:a
.	.	.	.	8dd#\	lä-	Kwit-	<
4Gn\ 4c#X 4en	8ggn/L	4gn\ 4b-X	[ >	8ee\	-cheln-	-ną-	.
.	8een/J)	.	]]	8ee\	-de	-ce	[[
=11	=11	=11	=11	=11	=11	=11	=11
!	!	!	!	!	!	!	!LO:DY:a
4c#X\ 4en 4f#X	(4ff#/	8a#X\L 8cc#X	<	4ff#\	Jung-	dziew-	>
.	.	8b\J 8ddn	.	.	.	.	.
4DDDn/ 4DDn	4ggn/ 4aa#X 4eee	4cc#\	[ >	4cc#\	-frau;	-czę;	]
8B\L 8fn 8g#	8ddn/L 8dddn	4ffn\	.	4r	.	.	.
8dn\J	8b/J) 8bb	.	]	.	.	.	.
=12	=12	=12	=12	=12	=12	=12	=12
*^	*	*	*	*^	*	*	*
4d#X\ 4an 4ccn	4ryy	(8aan/ 8aaan	2cccn\ 2fff#X	.	4r	4ryy	.	.	.
.	.	4gg#/ 4ggg#	.	f	.	.	.	.	.
4GGGn/ 4GGn	([2GGG\ [>2GG	.	.	.	8r	8ryy	.	.	.
!	!	!	!	!	!LO:TX:a:t=(Ossia)	!	!	!	!LO:DY:b
*	*	*	*	*	*cue	*	*	*	*
.	.	4ggn/ 4gggn	.	.	4aan/	4ggn\	Du	straż	f
4d#/ 4a 4cc	.	.	4aa\ 4ccc	.	.	.	.	.	.
.	.	8ff#/ 8fff#	.	.	8aa/	8ff#\	wirst	wnet	.
*	*	*	*	*	*Xcue	*	*	*	*
*	*	*	*	*	*v	*v	*	*	*
=13	=13	=13	=13	=13	=13	=13	=13	=13
*	*^	*	*^	*	*	*	*	*
4e/ 4gn 4b	8GGG\L] 8GG]	2ryy	4ryy	4ee\) 4ggn 4eee	2ryy	>	4.een\	einst	bę-	.
.	8BBB\J 8BB	.	.	.	.	.	.	.	.	.
!	!	!	!LO:TX:a:i:t=ten.	!	!	!	!	!	!	!
8r	2EE\) 2E	.	2dddn/	(>8b\L 8ffn 8gg#X	.	.	.	.	.	.
8c#/ 8e 8a#X	.	.	.	8cc#\J 8aa#X	.	]	4ddn\	ei-	-dziesz	.
!LO:TX:a:t=P:problem: od 8.b/L do 8b#X/J) voice leading line	!	!	!LO:TX:b:i:t=rit.	!	!	!	!	!	!	!
8.b/L	.	4d#\ 4fn	.	4gg#\	8ddnX/L 8bb	.	.	.	.	.
.	.	.	.	.	8b#X/J) 8bb#X	.	8dd\	-nen	nad	.
16b-X/Jk	.	.	.	.	.	.	.	.	.	.
*	*v	*v	*	*	*	*	*	*	*	*
*	*	*	*v	*v	*	*	*	*	*
!!LO:PB:g=original	!	!	!	!	!	!	!	!
=14	=14	=14	=14	=14	=14	=14	=14	=14
!LO:TX:a:t=P:problem: od 12an do 8g# voice leading line	!	!	!	!	!	!	!	!
!LO:TX:t=P:problem:mixed beam	!	!LO:TX:b:i:t=ten.	!	!LO:TX:t=cre_scen_do:dur=3e2qh:ext=ud:problem:text with extention lines 	!LO:TX:a:B:t=a tempo	!	!	!LO:DY:a
!LO:TX:a:t=P:problem: od 12B do 8G#/J voice leading line	!	!	!	!	!	!	!	!
N(12An\L 12B 12e#X 12an	4ryy	8cc#/L 8ee#X 8ccc#	4ryy	mf	8cc#X\	gro-	wiel-	<
12AAAn/	.	.	.	.	.	.	.	.
.	.	8G#/J 8g#	.	.	8g#/	-ẞen	-kiem	.
12AAn/J	.	.	.	.	.	.	.	.
!LO:TX:a:t=P:problem: od 4fn do 8G#/J voice leading line	!	!	!	!	!	!	!	!
(4Fn/ 4G# 4fn	2B\	(4.c#/ 4.cc#	4gn\	>	4.gn/	Him-	dzier-	.
4E/) 4G#X 4en	.	.	4g#X\	.	.	.	.	.
.	.	8dn/)N) 8ddn	.	]	8ddn\	-mel	-żyć	.
*clefG2	*	*	*	*	*	*	*	*
=15	=15	=15	=15	=15	=15	=15	=15	=15
N(>12cn/L 12dn 12g# 12ccn	4ryy	8een\L 8gg#X 8eeen	4ryy	.	2ee\	hü-	nie-	.
*clefF4	*	*	*	*	*	*	*	*
12AAAn/	.	.	.	.	.	.	.	.
.	.	8Bn\J 8bn	.	.	.	.	.	.
12AAn/J)	.	.	.	.	.	.	.	.
(4G#X/ 4A#X 4g#X	2dn\	(4.e/ 4.ee	4a#X\	>	.	.	.	.
4Gn/) 4B 4gn	.	.	4b\	.	4b\	-ten	-bem,	[
.	.	8fn/) 8ffnN)	.	]	.	.	.	.
*v	*v	*	*	*	*	*	*	*
*	*v	*v	*	*	*	*	*
*clefG2	*	*	*	*	*	*
=16	=16	=16	=16	=16	=16	=16
8e-X/ 8f# 8bn 8ee-X	8ggn\L 8bb 8gggn	.	4r	.	.	.
8r	8dn\J 8ddn	.	.	.	.	.
*clefF4	*	*	*	*	*	*
!	!LO:TX:i:b:t=ten.	!	!	!	!	!LO:DY:a
(4EEE-X/ 4EE-X	(>[2e-X^^/ [2g-X 2b-X [2ee-X [2gg-X	sff < [[	[2ggn^^\	Mut-	Mat-	<
4GGG-X/ 4GG-X	.	.	.	.	.	.
=17	=17	=17	=17	=17	=17	=17
*^	*^	*	*	*	*	*
*	*	*	*	*^	*	*	*	*
4r	2.CC-X\) 2.C-X	4e-/] 4g-] 4ee-] 4gg-]	4ryy	.	.	4gg\]	.	.	[
!	!	!LO:TX:a:i:t=ten.	!	!	!LO:HP:a:t=molto dim.	!	!	!	!LO:HP:a:t=molto dim.
4d-X/ 4fn	.	2g-X/ 2gg-X	4dd-X\ 4ffn	>	>	[4ffn\	-ter	-ko	>
!	!	!LO:TX:b:i:t=rit.	!	!	!	!	!	!	!
4c-X/ 4e-X	.	.	4cc-X\) 4ee-X	.	.	16ff\]	.	.	.
.	.	.	.	.	.	8ee-X\	mit	z dziec-	.
.	.	.	.	]]	.	16ee-\	dem	-kiem	.
*	*	*	*	*v	*v	*	*	*	*
*v	*v	*	*	*	*	*	*	*
!!LO:LB:g=original	!	!	!	!	!	!	!
=18	=18	=18	=18	=18	=18	=18	=18
*	*	*^	*	*	*	*	*
(2FFFn/ 2FFn	(>4cn/ 4e-X 4fn 4an	4ryy	2ryy	p	(4an/	Kind.	swem.	.
!	!	!	!	!LO:HP:t=dim.	!	!	!	!
.	4.b-X/	[4B-X\ 4dn 4fn	.	>	4b-X\)	.	.	.
!	!LO:TX:b:t=rall.	!	!	!	!	!	!	!
4AAA-X/ 4AA-X	.	4d-X\ 4f-X	8.B-X\L]	.	4r	.	.	.
.	8an/)	.	.	.	.	.	.	.
.	.	.	16c-X\Jk	.	.	.	.	.
*	*	*v	*v	*	*	*	*	*
=19	=19	=19	=19	=19	=19	=19	=19
!	!	!	!	!LO:TX:a:B:t=Tempo I.	!	!	!
4FFF#X/) 4FF#X	(4g#X/	8B#X\L 8d#X	pp	4r	.	.	.
.	.	8c#X\J 8en	<	.	.	.	.
4D#\ 4An 4B#X	4an/ 4b#X 4ff#	4d#X\ 4f#X	[ >	4r	.	.	.
4E\ 4A#X 4c#	8ee/L	4e\ 4gn	]]	8r	.	.	.
.	8cc#/J)	.	.	8cc#\	Ich	Przy-	.
=20	=20	=20	=20	=20	=20	=20	=20
*^	*	*	*	*	*	*	*
!	!	!	!	!	!	!	!	!LO:DY:a
4F##X\ 4A# 4c#	2ryy	(4d#/ 4dd#	8f##X\L 8a#X	<	4.dd#\	tu	-mkną-	<
.	.	.	8g#\J 8b	.	.	.	.	.
4DDD#/ 4DD#	.	4ee/ 4ff##X 4ccc#	4a#\ 4cc#	[ >	.	.	.	.
!	!	!	!	!	!	!	!	!LO:DY:a
.	.	.	.	.	8ee\	die	-łem	[ >
4dn/ 4e#X	8G#\L	8b/L 8bb	4ddn\	.	8b\	Tür	znów	.
.	8B\J	8g#/J) 8gg#	.	]]	8a#X/	mit	z uś-	]
=21	=21	=21	=21	=21	=21	=21	=21	=21
4B#X\ 4f# 4an	4ryy	(8ff#/ 8fff#	2aan\ 2ddd#	pp <	4.an/	ern-	-mie-	.
.	.	4ee#X/ 4eee#X	.	.	.	.	.	.
4EEE/ 4EE	(<[2EEE\ [>2EE	.	.	.	.	.	.	.
.	.	4een/ 4eeen	.	.	8a/	-stem	-chem	.
4B#/ 4f# 4a	.	.	4ff#\ 4aa	.	8a/	Lä-	two-	.
.	.	8dd#/ 8ddd#	.	[[	8b#X\	-cheln	-je	.
!!LO:LB:g=original	!	!	!	!	!	!	!	!
=22	=22	=22	=22	=22	=22	=22	=22	=22
*	*^	*	*	*	*	*	*	*
4c#/ 4e 4g#	8EEE\L] 8EE]	2ryy	4cc#/) 4ccc#	4ee\	mp >	2.cc#\	zu.	drzwi.	.
.	8GGG#\J 8GG#	.	.	.	.	.	.	.	.
8r	2CC#\) 2C#	.	2bb/	(>8g#\L 8ddn	.	.	.	.	.
!	!	!	!LO:TX:b:i:t=rit.	!	!	!	!	!	!
8A#/ 8c# 8f##X	.	.	.	8a#\J 8ff##X	] <	.	.	.	.
!LO:TX:a:t=P:problem: od 8.g#/L do 8an\J) voice leading line	!	!	!	!	!	!	!	!	!
8.g#/L	.	4B\ 4dn	.	8b\L 8ee#X 8gg#	.	.	.	.	.
.	.	.	.	8an\J) 8aan	.	.	.	.	.
16gn/Jk	.	.	.	.	[[	.	.	.	.
*v	*v	*v	*	*	*	*	*	*	*
=23	=23	=23	=23	=23	=23	=23	=23
!LO:TX:a:t=P:problem: od 12f# do 8e#X\J voice leading line	!	!	!	!	!	!	!
!LO:TX:t=P:problem:mixed beam	!LO:TX:a:i:t=ten.	!	!	!	!	!	!
N(12G#\L 12A# 12c##X 12f#	8a#X\L 8cc##X 8aa#X	4ryy	pp	2.r	.	.	.
(12FFF#/	.	.	.	.	.	.	.
.	8e#X\J	.	.	.	.	.	.
12FF#/J)	.	.	.	.	.	.	.
*	*	*	*^	*	*	*	*
!	!	!	!LO:HP:a:t=poco	!LO:HP:a	!	!	!	!
(4G#\ 4dn	(4.a#/	4en\	<	>	.	.	.	.
!LO:N:n=2:acc=n#	!	!	!	!	!	!	!	!
4Gn\) 4c#X	.	4fn\	.	.	.	.	.	.
.	8b/)N)	.	.	]]	.	.	.	.
=24	=24	=24	=24	=24	=24	=24	=24	=24
!LO:TX:a:t=P:problem: od 12an do 8g#\J voice leading line	!	!	!	!	!	!	!	!
!LO:TX:t=P:problem:mixed beam	!	!	!	!	!	!	!	!
N(12B\L 12c# 12e#X 12an	8cc#\L 8ee#X 8ccc#	4ryy	.	.	2.r	.	.	.
(12FFF#/	.	.	.	.	.	.	.	.
!	!	!	!LO:HP:a	!	!	!	!	!
.	8g#\J	.	<	.	.	.	.	.
12FF#/J)	.	.	.	.	.	.	.	.
(4B\ 4e#	(4.cc#/	4gn\	>	.	.	.	.	.
4B-X\) 4en	.	4g#X\	.	.	.	.	.	.
.	8ddn/)N)	.	]]	.	.	.	.	.
*	*	*	*v	*v	*	*	*	*
*	*v	*v	*	*	*	*	*
*clefG2	*	*	*	*	*	*
=25	=25	=25	=25	=25	=25	=25
!LO:TX:a:t=P:problem: od 12b do 8a#\J voice leading line	!	!	!	!	!	!
N(12c#/L 12d# 12f##X 12b	8dd#X\L 8ff##X 8ddd#	pp	2.r	.	.	.
*clefF4	*	*	*	*	*	*
(12FFF#/	.	.	.	.	.	.
*	*	*^	*	*	*	*
!	!	!LO:HP:t=dim. e rall.	!	!	!	!	!
!	!	!	!LO:HP:a	!	!	!	!
.	8a#\J	<	<	.	.	.	.
12FF#/J)	.	.	.	.	.	.	.
(4G#\ 4B	4d#/ 4g# 4b 4dd#	.	.	.	.	.	.
!	!	!	!LO:HP:a	!	!	!	!
4Dn\ 4G# 4B	4e#X/ 4g# 4b 4ee#X	]	[ >	.	.	.	.
*	*	*v	*v	*	*	*	*
=26	=26	=26	=26	=26	=26	=26
4C#\ 4F# 4G# 4B	4e#X/ 4g# 4b 4ddn 4ee#X	.	2.r;	.	.	.
2FFF#;/) 2CC# 2FF#	2f#;\N) 2a# 2cc# 2ff#	] ppp	.	.	.	.
!LO:TX:rj:B:b:t=1907	!	!	!	!	!	!
==	==	==	==	==	==	==
*-	*-	*-	*-	*-	*-	*-
!!!system-decoration: s1{(s2,s3)}
!!!RDF**kern: > = above
!!!RDF**kern: < = below
!!!RDF**kern: N = linked
!!!ENC: Berenika Jozajtis
!!!END: 2023-09-15
!!!EED: Jan Barakat
!!!EEV: 2023-10-17
